public/images/nodejs.svg

<svg width="48" height="53" viewBox="0 0 48 53" fill="none" xmlns="http://www.w3.org/2000/svg">
<g id="Group 76">
<path id="Vector" d="M22.1107 1.12186C23.3866 0.391532 25.0485 0.388233 26.3233 1.12186C32.7368 4.74583 39.1524 8.36412 45.5648 11.9903C46.7709 12.6697 47.5776 14.0119 47.5654 15.4017V37.2049C47.5743 38.6521 46.6879 40.0265 45.4154 40.6905C39.023 44.2944 32.6339 47.9028 26.2425 51.5068C24.9402 52.2514 23.245 52.1941 21.9833 51.3884C20.0669 50.2775 18.1471 49.172 16.2305 48.0621C15.8389 47.8286 15.3974 47.6428 15.1208 47.263C15.3653 46.9335 15.8024 46.8925 16.1576 46.7486C16.9575 46.4942 17.6923 46.0859 18.4272 45.6897C18.613 45.5625 18.8399 45.6112 19.018 45.725C20.6568 46.6647 22.2811 47.6316 23.9254 48.5622C24.2762 48.7648 24.6314 48.4959 24.9312 48.3288C31.2042 44.7834 37.4848 41.2514 43.7567 37.705C43.989 37.5932 44.1175 37.3465 44.0986 37.092C44.103 29.8996 44.0997 22.7059 44.1008 15.5135C44.1274 15.2246 43.9603 14.9591 43.6991 14.8409C37.3288 11.2534 30.9619 7.66036 24.5927 4.07195C24.4824 3.99608 24.3517 3.95538 24.2177 3.95518C24.0838 3.95499 23.953 3.99531 23.8424 4.07085C17.4733 7.66036 11.1074 11.2567 4.73824 14.844C4.47799 14.9624 4.30334 15.2235 4.33431 15.5135C4.33541 22.7059 4.33431 29.8995 4.33431 37.0931C4.32327 37.2173 4.35055 37.3419 4.41248 37.4501C4.47441 37.5583 4.56801 37.645 4.68069 37.6984C6.38033 38.6622 8.08217 39.6192 9.78291 40.5798C10.741 41.0955 11.9174 41.4019 12.9731 41.0068C13.9046 40.6727 14.5576 39.7221 14.5398 38.7329C14.5486 31.5825 14.5355 24.431 14.5464 17.2816C14.5232 16.9642 14.8243 16.702 15.1329 16.7318C15.9496 16.7263 16.7673 16.7208 17.584 16.734C17.9248 16.7263 18.1594 17.0681 18.1173 17.3879C18.114 24.5836 18.1261 31.7795 18.1118 38.9752C18.114 40.893 17.3261 42.9797 15.5522 43.918C13.3669 45.0501 10.6659 44.81 8.50699 43.7245C6.63801 42.7916 4.85443 41.6907 3.01862 40.6914C1.74288 40.031 0.860806 38.6512 0.869787 37.205V15.4017C0.856408 13.9832 1.69523 12.6165 2.9389 11.947C9.33023 8.34011 15.7205 4.73043 22.1107 1.12186Z" fill="#8CC84B"/>
<path id="Vector_2" d="M27.6865 16.225C30.474 16.0456 33.4582 16.1187 35.9666 17.4919C37.9087 18.5443 38.9854 20.7529 39.0197 22.9105C38.9655 23.2015 38.6612 23.3621 38.3834 23.3421C37.5746 23.341 36.7657 23.3531 35.9569 23.3366C35.6138 23.3498 35.4144 23.0335 35.3714 22.7301C35.139 21.6978 34.576 20.6753 33.6043 20.1774C32.1126 19.4306 30.3831 19.4681 28.7566 19.4837C27.5692 19.5468 26.2924 19.6496 25.2864 20.3478C24.5141 20.8767 24.2795 21.9445 24.5552 22.8044C24.815 23.4218 25.5278 23.621 26.1109 23.8047C29.4703 24.6832 33.0301 24.5958 36.3253 25.7521C37.6895 26.2234 39.0241 27.1398 39.4911 28.5682C40.1019 30.4826 39.8342 32.7709 38.4721 34.3078C37.3675 35.5726 35.7588 36.2609 34.1543 36.6348C32.0197 37.1107 29.8045 37.1228 27.6368 36.9115C25.5985 36.6791 23.4774 36.1436 21.9038 34.7548C20.5582 33.5865 19.901 31.7661 19.9663 30.0091C19.9819 29.7123 20.2773 29.5054 20.5615 29.5298C21.376 29.5232 22.1904 29.521 23.0049 29.5309C23.3302 29.5076 23.5714 29.7888 23.588 30.0954C23.7383 31.079 24.108 32.1113 24.9657 32.6945C26.621 33.7624 28.698 33.6893 30.5933 33.7192C32.1636 33.6495 33.9263 33.6284 35.2077 32.5906C35.8838 31.9986 36.0841 31.0082 35.9014 30.1562C35.7034 29.4369 34.9509 29.1017 34.3047 28.8825C30.9885 27.8335 27.3889 28.2141 24.1047 27.0278C22.7714 26.5566 21.4821 25.6658 20.9699 24.296C20.2551 22.3574 20.5826 19.9595 22.0874 18.4744C23.5547 16.9973 25.6727 16.4284 27.6865 16.2248V16.225Z" fill="#8CC84B"/>
</g>
</svg>

<svg xmlns="http://www.w3.org/2000/svg" width="48" height="53" fill="none"><g fill="#8CC84B"><path d="M22.11 1.122c1.277-.73 2.939-.734 4.213 0 6.414 3.624 12.83 7.242 19.242 10.868 1.206.68 2.013 2.022 2 3.412v21.803c.01 1.447-.877 2.822-2.15 3.486-6.392 3.603-12.781 7.212-19.172 10.816-1.303.744-2.998.687-4.26-.119-1.916-1.11-3.836-2.216-5.753-3.326-.391-.233-.833-.42-1.11-.799.245-.33.682-.37 1.038-.514.8-.255 1.534-.663 2.27-1.06.185-.127.412-.078.59.036 1.639.94 3.263 1.907 4.907 2.837.351.203.706-.066 1.006-.233 6.273-3.546 12.554-7.078 18.826-10.624a.623.623 0 0 0 .342-.613c.004-7.192 0-14.386.002-21.578a.674.674 0 0 0-.402-.673c-6.37-3.588-12.737-7.18-19.106-10.77a.663.663 0 0 0-.75 0c-6.37 3.59-12.736 7.186-19.105 10.773a.666.666 0 0 0-.404.67v21.58a.61.61 0 0 0 .347.604c1.7.964 3.401 1.921 5.102 2.882.958.516 2.134.822 3.19.427.932-.334 1.585-1.285 1.567-2.274.009-7.15-.004-14.302.006-21.451-.023-.318.278-.58.587-.55.817-.006 1.634-.011 2.451.002.34-.008.575.334.533.654-.003 7.196.01 14.391-.005 21.587.002 1.918-.786 4.005-2.56 4.943-2.185 1.132-4.886.892-7.045-.194-1.869-.932-3.653-2.033-5.488-3.033-1.276-.66-2.158-2.04-2.15-3.486V15.402c-.013-1.419.826-2.785 2.07-3.455C9.33 8.34 15.72 4.73 22.11 1.122Z"/><path d="M27.686 16.225c2.788-.18 5.772-.106 8.28 1.267 1.943 1.052 3.02 3.26 3.054 5.418-.055.291-.359.452-.637.432-.808-.001-1.617.011-2.426-.005-.343.013-.543-.303-.586-.607-.232-1.032-.795-2.055-1.767-2.553-1.491-.746-3.22-.709-4.847-.693-1.188.063-2.465.166-3.47.864-.773.529-1.008 1.597-.732 2.456.26.618.973.817 1.556 1 3.36.88 6.92.792 10.214 1.948 1.364.471 2.7 1.388 3.166 2.816.61 1.915.343 4.203-1.019 5.74-1.105 1.265-2.713 1.953-4.318 2.327-2.134.476-4.35.488-6.517.276-2.038-.232-4.16-.767-5.733-2.156-1.346-1.169-2.003-2.989-1.938-4.746.016-.297.311-.504.595-.48.815-.006 1.63-.008 2.444.002.325-.023.566.258.583.564.15.984.52 2.016 1.378 2.6 1.655 1.067 3.732.994 5.627 1.024 1.57-.07 3.333-.09 4.615-1.128.676-.592.876-1.583.693-2.435-.198-.72-.95-1.054-1.596-1.273-3.317-1.05-6.916-.669-10.2-1.855-1.334-.471-2.623-1.362-3.135-2.732-.715-1.939-.387-4.337 1.117-5.822 1.468-1.477 3.586-2.046 5.6-2.25v.001Z"/></g></svg>
